!!! OTL: Berkowitz158
!!! Chapter: 1
!!! Section: I
!!! Page: 35
!!! Mode: 
!!! Encoder: DJB
**kern
*staff1
*I"Piano
*clefF4
*k[b-e-a-d-]
*A-:
*M3/4
4E-\
4E-\
=1
4.E-\
8C/
4C/
=2
4r
4E-\
4E-\
=3
4.E-\
8BB-/
4BB-/
=4
4r
4BB-/
4C/
=5
4D-\
4E-\
4F\
=6
4G\
4F\
4G\
=7
2.E-\
=8
4r
4A-\
4A-\
=9
4.A-\
8F\
4F\
=10
!!linebreak:original
4r
4A-\
4A-\
=11
4.A-\
8E-\
4E-\
=12
4r
4F\
4F\
=13
4.G\
8F\
4G\
=14
4E-\
4F\
4G\
=15
2.A-\
==
*-
